; generated by SuperSlicer 2.3.57 on 2021-11-21 at 14:27:58 UTC


;
;

;
;
; TODO: check the size of the extruder and the y-bar clearance. Optimize & test supports.

; external perimeters extrusion width = 0.42mm
; perimeters extrusion width = 0.46mm
; infill extrusion width = 0.44mm
; solid infill extrusion width = 0.46mm
; top infill extrusion width = 0.44mm
; first layer extrusion width = 0.56mm

; object:{"name":"square_tower","id":"square_tower.stl id:0 copy 0","object_center":[60.000000,60.000000,0.000000],"boundingbox_center":[60.000000,60.000000,25.000000],"boundingbox_size":[66.000000,65.945206,50.000000]}
; plater:{"center":[60.000000,60.000000,0.000000],"boundingbox_center":[60.000000,60.000000,25.000000],"boundingbox_size":[66.000000,65.945206,50.000000]}

;TYPE:Custom
; M190 S0
; M109 S0 ; uncomment to remove set&wait temp gcode added automatically after this start gcode
G28
G90 ; use absolute coordinates
M83 ; extruder relative mode
; Set Extruder and Bed Temperature
M104 S235
M140 S80

G1 X60 Y60 Z75

M190 S80
M109 S235

; With the Nozzle at Temperature and any Filament Remains stuck to it soft perform second G28 for the Z-Axis.
G28 Z
; Go outside Print Area <- Start of actual Purge / Prime Line.
G1 Y0.4 F8000.0
G1 Z0.4 F8000.0
; Purge Line
G1 X55.0 E20.0 F1073.0
G1 X5.0 E13.0 F1800.0
G1 X55.0 E8.0 F2000.0
G1 Z0.3 F1000.0
G92 E0.0
G1 X120.0 E20.0 F2200.0
G1 Y1.4 F1000.0
G1 X55.0 E20 F1400.0
G1 Z0.20 F3000.0
G1 X5.0 E4.0 F1000.0

;print_start EXTRUDER=235 BED=80 CHAMBER=0

M107
G21 ; set units to millimeters
G90 ; use absolute coordinates
M83 ; use relative distances for extrusion
M900 K0.08 ; Filament gcode LA 1.5
M900 K200 ; Filament gcode LA 1.0
;LAYER_CHANGE
;Z:0.2
;HEIGHT:0.2
;BEFORE_LAYER_CHANGE
;0.2


G1 Z0.2 F18000
;AFTER_LAYER_CHANGE
;0.2
G1 E-1 F1500
G1 Z0.4 F18000
M204 S1500
G1 X25.931 Y25.097
G1 Z0.2
G1 E1 F1800
;TYPE:Skirt
;WIDTH:0.56
G1 X27.521 Y23.974 E0.08371
G1 X29.238 Y23.233 E0.08043
G1 X31.254 Y22.841 E0.0883
G1 X88.517 Y22.835 E2.46204
G1 X89.391 Y22.926 E0.03779
G1 X91.215 Y23.399 E0.081
G1 X92.72 Y24.114 E0.07163
G1 X94.333 Y25.343 E0.08719
G1 X95.464 Y26.635 E0.07385
G1 X96.385 Y28.234 E0.07934
G1 X96.971 Y30. E0.07999
G1 X97.173 Y31.597 E0.06922
G1 X97.19 Y88.138 E2.43101
G1 X96.998 Y89.877 E0.07522
G1 X96.519 Y91.436 E0.07011
G1 X95.674 Y93.039 E0.07794
G1 X95.204 Y93.696 E0.03472
G1 X94.062 Y94.909 E0.07163
G1 X92.443 Y96.045 E0.08503
G1 X90.713 Y96.782 E0.08085
G1 X88.587 Y97.165 E0.09287
G1 X31.329 Y97.162 E2.46181
G1 X29.574 Y96.854 E0.07664
G1 X28.823 Y96.617 E0.03384
G1 X27.354 Y95.932 E0.06968
G1 X25.906 Y94.881 E0.07692
G1 X24.578 Y93.423 E0.08481
G1 X23.617 Y91.771 E0.08218
G1 X23.014 Y89.935 E0.08306
G1 X22.808 Y88.071 E0.08066
G1 X22.81 Y31.862 E2.41672
G1 X23.002 Y30.123 E0.07521
G1 X23.481 Y28.564 E0.07011
G1 X24.326 Y26.961 E0.07795
G1 X24.797 Y26.304 E0.03472
G1 X25.89 Y25.141 E0.06862
G1 X26.076 Y25.318 F18000
M204 S1000
G1 X26.262 Y25.494
G1 F1800
G1 X27.762 Y24.432 E0.07899
G1 X29.386 Y23.728 E0.07612
G1 X31.292 Y23.357 E0.0835
G1 X88.517 Y23.352 E2.46038
G1 X89.289 Y23.433 E0.03338
G1 X91.016 Y23.876 E0.07665
G1 X92.443 Y24.55 E0.06787
G1 X93.977 Y25.718 E0.08287
G1 X95.043 Y26.935 E0.06954
G1 X95.917 Y28.453 E0.07531
G1 X96.471 Y30.129 E0.07592
G1 X96.66 Y31.663 E0.06643
G1 X96.673 Y88.115 E2.4272
G1 X96.492 Y89.774 E0.07174
G1 X96.033 Y91.26 E0.06685
G1 X95.226 Y92.78 E0.074
G1 X94.804 Y93.368 E0.03112
G1 X93.73 Y94.512 E0.06746
G1 X92.209 Y95.584 E0.08003
G1 X90.577 Y96.283 E0.07631
G1 X88.573 Y96.648 E0.08758
G1 X31.358 Y96.646 E2.45997
G1 X29.687 Y96.35 E0.07298
G1 X29.015 Y96.137 E0.0303
G1 X27.618 Y95.487 E0.06625
G1 X26.236 Y94.483 E0.07345
G1 X24.991 Y93.112 E0.07962
G1 X24.086 Y91.552 E0.07756
G1 X23.518 Y89.82 E0.07839
G1 X23.325 Y88.059 E0.07613
G1 X23.327 Y31.885 E2.41524
G1 X23.508 Y30.226 E0.07174
G1 X23.967 Y28.741 E0.06686
G1 X24.774 Y27.22 E0.074
G1 X25.196 Y26.632 E0.03112
G1 X26.221 Y25.538 E0.06447
M204 S1500
G1 X26.409 Y25.713 F18000
M204 S1000
G1 X26.596 Y25.889
G1 F1800
G1 X28.005 Y24.888 E0.07427
G1 X29.532 Y24.225 E0.07161
G1 X31.327 Y23.873 E0.07865
G1 X88.517 Y23.869 E2.45887
G1 X89.185 Y23.939 E0.0289
G1 X90.815 Y24.353 E0.07229
G1 X92.165 Y24.986 E0.06413
G1 X93.615 Y26.087 E0.07826
G1 X94.622 Y27.236 E0.06568
G1 X95.448 Y28.672 E0.07123
G1 X95.969 Y30.254 E0.07161
G1 X96.146 Y31.721 E0.06356
G1 X96.157 Y88.094 E2.42374
G1 X95.986 Y89.668 E0.06808
G1 X95.548 Y91.08 E0.06357
G1 X94.779 Y92.521 E0.0702
G1 X94.406 Y93.037 E0.02738
G1 X93.4 Y94.114 E0.06337
G1 X91.976 Y95.122 E0.07504
G1 X90.438 Y95.784 E0.07197
G1 X88.561 Y96.131 E0.08206
G1 X31.381 Y96.129 E2.45849
G1 X29.795 Y95.844 E0.06926
G1 X29.214 Y95.66 E0.02623
G1 X27.884 Y95.044 E0.06301
G1 X26.566 Y94.085 E0.07008
G1 X25.407 Y92.804 E0.07428
G1 X24.554 Y91.333 E0.07313
G1 X24.023 Y89.707 E0.07352
G1 X23.842 Y88.047 E0.0718
G1 X23.843 Y31.906 E2.41378
G1 X24.015 Y30.328 E0.06827
G1 X24.452 Y28.92 E0.06338
G1 X25.221 Y27.479 E0.07021
G1 X25.594 Y26.963 E0.02738
G1 X26.555 Y25.933 E0.0606
; INIT printing object square_tower.stl id:0 copy 0
G1 E-1 F1500
M204 S1500
G1 Z0.4 F18000
; printing object square_tower.stl id:0 copy 0
G1 X30.588 Y30.276
M204 S1000
G1 X34.62 Y34.62
G1 Z0.2
G1 E1 F1800
;TYPE:External perimeter
G1 X34.62 Y54.62 E0.85991
G1 X34.12 Y54.62 E0.0215
G1 X34.12 Y57.38 E0.11867
G1 X34.62 Y57.38 E0.0215
G1 X34.62 Y85.38 E1.20387
G1 X58.62 Y85.38 E1.03189
G1 X58.62 Y85.88 E0.0215
G1 X61.38 Y85.88 E0.11867
G1 X61.38 Y85.38 E0.0215
G1 X85.38 Y85.38 E1.03189
G1 X85.38 Y61.38 E1.03189
G1 X85.88 Y61.38 E0.0215
G1 X85.88 Y58.62 E0.11867
G1 X85.38 Y58.62 E0.0215
G1 X85.38 Y34.62 E1.03189
G1 X61.38 Y34.62 E1.03189
G1 X61.38 Y34.12 E0.0215
G1 X58.62 Y34.12 E0.11867
G1 X58.62 Y34.62 E0.0215
G1 X34.68 Y34.62 E1.02931
G1 E-1 F1500
M204 S1500
G1 Z0.4 F18000
G1 X35.491 Y32.5
M204 S1000
G1 X36.303 Y30.38
G1 Z0.2
G1 E1 F1800
G1 X83.697 Y30.38 E2.03774
G1 X83.781 Y30.122 E0.01167
G1 X84.264 Y29.286 E0.04152
G1 X84.91 Y28.568 E0.04151
G1 X85.691 Y28.001 E0.04151
G1 X86.573 Y27.608 E0.04151
G1 X87.517 Y27.407 E0.04151
G1 X88.483 Y27.407 E0.0415
G1 X89.427 Y27.608 E0.04151
G1 X90.309 Y28.001 E0.04151
G1 X91.09 Y28.568 E0.04151
G1 X91.736 Y29.286 E0.04151
G1 X92.219 Y30.122 E0.04151
G1 X92.517 Y31.04 E0.04151
G1 X92.618 Y32. E0.04151
G1 X92.517 Y32.96 E0.04151
G1 X92.219 Y33.878 E0.04151
G1 X91.736 Y34.714 E0.04151
G1 X91.09 Y35.432 E0.04151
G1 X90.309 Y35.999 E0.04151
G1 X89.62 Y36.306 E0.03243
G1 X89.62 Y83.694 E2.03747
G1 X90.309 Y84.001 E0.03243
G1 X91.09 Y84.568 E0.04151
G1 X91.736 Y85.286 E0.04151
G1 X92.219 Y86.122 E0.04151
G1 X92.517 Y87.04 E0.04151
G1 X92.618 Y88. E0.04151
G1 X92.517 Y88.96 E0.04151
G1 X92.219 Y89.878 E0.04151
G1 X91.736 Y90.714 E0.04151
G1 X91.09 Y91.432 E0.04151
G1 X90.309 Y91.999 E0.04151
G1 X89.427 Y92.392 E0.04151
G1 X88.483 Y92.593 E0.04151
G1 X87.517 Y92.593 E0.0415
G1 X86.573 Y92.392 E0.04151
G1 X85.691 Y91.999 E0.04151
G1 X84.91 Y91.432 E0.04151
G1 X84.264 Y90.714 E0.04151
G1 X83.781 Y89.878 E0.04152
G1 X83.697 Y89.62 E0.01167
G1 X36.303 Y89.62 E2.03774
G1 X36.219 Y89.878 E0.01168
G1 X35.736 Y90.714 E0.0415
G1 X35.09 Y91.432 E0.04151
G1 X34.309 Y91.999 E0.04151
G1 X33.427 Y92.392 E0.04151
G1 X32.483 Y92.593 E0.04151
G1 X31.517 Y92.593 E0.04151
G1 X30.573 Y92.392 E0.04151
G1 X29.691 Y91.999 E0.04151
G1 X28.91 Y91.432 E0.04151
G1 X28.264 Y90.714 E0.04151
G1 X27.781 Y89.878 E0.04151
G1 X27.483 Y88.96 E0.04151
G1 X27.382 Y88. E0.04151
G1 X27.483 Y87.04 E0.04151
G1 X27.781 Y86.122 E0.04151
G1 X28.264 Y85.286 E0.04151
G1 X28.91 Y84.568 E0.04151
G1 X29.691 Y84.001 E0.04151
G1 X30.38 Y83.694 E0.03242
G1 X30.38 Y36.306 E2.03747
G1 X29.691 Y35.999 E0.03242
G1 X28.91 Y35.432 E0.04151
G1 X28.264 Y34.714 E0.04151
G1 X27.781 Y33.878 E0.04151
G1 X27.483 Y32.96 E0.04151
G1 X27.382 Y32. E0.04151
G1 X27.483 Y31.04 E0.04151
G1 X27.781 Y30.122 E0.04151
G1 X28.264 Y29.286 E0.04151
G1 X28.91 Y28.568 E0.04151
G1 X29.691 Y28.001 E0.04151
G1 X30.573 Y27.608 E0.04151
G1 X31.517 Y27.407 E0.04151
G1 X32.483 Y27.407 E0.04151
G1 X32.784 Y27.472 E0.01326
G1 X33.427 Y27.608 E0.02824
G1 X34.309 Y28.001 E0.04151
G1 X35.09 Y28.568 E0.04151
G1 X35.736 Y29.286 E0.04151
G1 X36.219 Y30.122 E0.04151
G1 X36.284 Y30.323 E0.0091
G1 E-1 F1500
M204 S1500
G1 Z0.4 F18000
G1 X62.583 Y29.
M204 S1000
G1 X88.882 Y27.677
G1 Z0.2
G1 E1 F1800
;TYPE:Solid infill
;WIDTH:0.563547
G1 X92.004 Y30.799 E0.19104
G1 X92.11 Y31.126 E0.01488
G1 X92.17 Y31.697 E0.02482
G1 X88.294 Y27.821 E0.23716
G1 X87.563 Y27.821 E0.03164
G1 X92.158 Y32.416 E0.28117
G1 X92.11 Y32.874 E0.0199
G1 X92.055 Y33.044 E0.00775
G1 X86.96 Y27.949 E0.31177
G1 X86.701 Y28.004 E0.01142
G1 X86.412 Y28.133 E0.01371
G1 X91.875 Y33.596 E0.3343
G1 X91.839 Y33.709 E0.00515
G1 X91.626 Y34.078 E0.01841
G1 X85.906 Y28.358 E0.34999
G1 X85.481 Y28.664 E0.02266
G1 X91.346 Y34.529 E0.35886
G1 X91. Y34.914 E0.0224
G1 X85.082 Y28.996 E0.36213
G1 X84.735 Y29.381 E0.0224
G1 X90.618 Y35.263 E0.35997
G1 X90.194 Y35.571 E0.02265
G1 X84.437 Y29.814 E0.3523
G1 X84.169 Y30.277 E0.02316
G1 X89.707 Y35.815 E0.33883
G1 X89.206 Y36.037 E0.02369
G1 X89.206 Y36.046 E0.00036
G1 X83.954 Y30.794 E0.32137
G1 X83.223 Y30.794 E0.03164
G1 X89.206 Y36.777 E0.36611
G1 X89.206 Y37.508 E0.03164
G1 X82.492 Y30.794 E0.41086
G1 X81.761 Y30.794 E0.03164
G1 X85.173 Y34.206 E0.20882
G1 X85.794 Y34.206 E0.02684
G1 X85.794 Y34.827 E0.02684
G1 X89.206 Y38.239 E0.20882
G1 X89.206 Y38.971 E0.03164
G1 X85.794 Y35.558 E0.20882
G1 X85.794 Y36.289 E0.03164
G1 X89.206 Y39.702 E0.20882
G1 X89.206 Y40.433 E0.03164
G1 X85.794 Y37.021 E0.20882
G1 X85.794 Y37.752 E0.03164
G1 X89.206 Y41.164 E0.20882
G1 X89.206 Y41.896 E0.03164
G1 X85.794 Y38.483 E0.20882
G1 X85.794 Y39.214 E0.03164
G1 X89.206 Y42.627 E0.20882
G1 X89.206 Y43.358 E0.03164
G1 X85.794 Y39.946 E0.20882
G1 X85.794 Y40.677 E0.03164
G1 X89.206 Y44.09 E0.20882
G1 X89.206 Y44.821 E0.03164
G1 X85.794 Y41.408 E0.20882
G1 X85.794 Y42.139 E0.03164
G1 X89.206 Y45.552 E0.20882
G1 X89.206 Y46.283 E0.03164
G1 X85.794 Y42.871 E0.20882
G1 X85.794 Y43.602 E0.03164
G1 X89.206 Y47.015 E0.20882
G1 X89.206 Y47.746 E0.03164
G1 X85.794 Y44.333 E0.20882
G1 X85.794 Y45.064 E0.03164
G1 X89.206 Y48.477 E0.20882
G1 X89.206 Y49.208 E0.03164
G1 X85.794 Y45.796 E0.20882
G1 X85.794 Y46.527 E0.03164
G1 X89.206 Y49.94 E0.20882
G1 X89.206 Y50.671 E0.03164
G1 X85.794 Y47.258 E0.20882
G1 X85.794 Y47.989 E0.03164
G1 X89.206 Y51.402 E0.20882
G1 X89.206 Y52.133 E0.03164
G1 X85.794 Y48.721 E0.20882
G1 X85.794 Y49.452 E0.03164
G1 X89.206 Y52.865 E0.20882
G1 X89.206 Y53.596 E0.03164
G1 X85.794 Y50.183 E0.20882
G1 X85.794 Y50.914 E0.03164
G1 X89.206 Y54.327 E0.20882
G1 X89.206 Y55.058 E0.03164
G1 X85.794 Y51.646 E0.20882
G1 X85.794 Y52.377 E0.03164
G1 X89.206 Y55.79 E0.20882
G1 X89.206 Y56.521 E0.03164
G1 X85.794 Y53.108 E0.20882
G1 X85.794 Y53.84 E0.03164
G1 X89.206 Y57.252 E0.20882
G1 X89.206 Y57.983 E0.03164
G1 X85.794 Y54.571 E0.20882
G1 X85.794 Y55.302 E0.03164
G1 X89.206 Y58.715 E0.20882
G1 X89.206 Y59.446 E0.03164
G1 X85.794 Y56.033 E0.20882
G1 X85.794 Y56.765 E0.03164
G1 X89.206 Y60.177 E0.20882
G1 X89.206 Y60.908 E0.03164
G1 X85.561 Y57.263 E0.22306
M204 S1500
G1 X85.811 Y57.879 F18000
M204 S1000
G1 X86.061 Y58.494
G1 F1800
G1 X89.206 Y61.64 E0.19246
G1 X89.206 Y62.371 E0.03164
G1 X86.294 Y59.458 E0.17823
G1 X86.294 Y60.19 E0.03164
G1 X89.206 Y63.102 E0.17823
G1 X89.206 Y63.834 E0.03164
G1 X86.294 Y60.921 E0.17823
G1 X86.294 Y61.652 E0.03164
G1 X89.206 Y64.565 E0.17823
G1 X89.206 Y65.296 E0.03164
G1 X85.794 Y61.883 E0.20882
G1 X85.794 Y62.615 E0.03164
G1 X89.206 Y66.027 E0.20882
G1 X89.206 Y66.759 E0.03164
G1 X85.794 Y63.346 E0.20882
G1 X85.794 Y64.077 E0.03164
G1 X89.206 Y67.49 E0.20882
G1 X89.206 Y68.221 E0.03164
G1 X85.794 Y64.808 E0.20882
G1 X85.794 Y65.54 E0.03164
G1 X89.206 Y68.952 E0.20882
G1 X89.206 Y69.684 E0.03164
G1 X85.794 Y66.271 E0.20882
G1 X85.794 Y67.002 E0.03164
G1 X89.206 Y70.415 E0.20882
G1 X89.206 Y71.146 E0.03164
G1 X85.794 Y67.733 E0.20882
G1 X85.794 Y68.465 E0.03164
G1 X89.206 Y71.877 E0.20882
G1 X89.206 Y72.609 E0.03164
G1 X85.794 Y69.196 E0.20882
G1 X85.794 Y69.927 E0.03164
G1 X89.206 Y73.34 E0.20882
G1 X89.206 Y74.071 E0.03164
G1 X85.794 Y70.658 E0.20882
G1 X85.794 Y71.39 E0.03164
G1 X89.206 Y74.802 E0.20882
G1 X89.206 Y75.534 E0.03164
G1 X85.794 Y72.121 E0.20882
G1 X85.794 Y72.852 E0.03164
G1 X89.206 Y76.265 E0.20882
G1 X89.206 Y76.996 E0.03164
G1 X85.794 Y73.584 E0.20882
G1 X85.794 Y74.315 E0.03164
G1 X89.206 Y77.727 E0.20882
G1 X89.206 Y78.459 E0.03164
G1 X85.794 Y75.046 E0.20882
G1 X85.794 Y75.777 E0.03164
G1 X89.206 Y79.19 E0.20882
G1 X89.206 Y79.921 E0.03164
G1 X85.794 Y76.509 E0.20882
G1 X85.794 Y77.24 E0.03164
G1 X89.206 Y80.653 E0.20882
G1 X89.206 Y81.384 E0.03164
G1 X85.794 Y77.971 E0.20882
G1 X85.794 Y78.702 E0.03164
G1 X89.206 Y82.115 E0.20882
G1 X89.206 Y82.846 E0.03164
G1 X85.794 Y79.434 E0.20882
G1 X85.794 Y80.165 E0.03164
G1 X89.206 Y83.578 E0.20882
G1 X89.206 Y83.963 E0.01667
G1 X89.901 Y84.272 E0.03288
G1 X91.728 Y86.099 E0.11182
G1 X91.839 Y86.291 E0.00958
G1 X92.11 Y87.126 E0.03801
G1 X92.12 Y87.223 E0.00419
G1 X85.794 Y80.896 E0.38712
G1 X85.794 Y81.627 E0.03164
G1 X92.199 Y88.032 E0.39192
G1 X92.129 Y88.694 E0.02879
G1 X85.794 Y82.359 E0.38766
G1 X85.794 Y83.09 E0.03164
G1 X91.979 Y89.276 E0.37851
G1 X91.839 Y89.709 E0.01972
G1 X91.781 Y89.809 E0.00497
G1 X85.794 Y83.821 E0.36638
G1 X85.794 Y84.552 E0.03164
G1 X91.514 Y90.272 E0.35
G1 X91.399 Y90.47 E0.00987
G1 X91.201 Y90.691 E0.01286
G1 X85.794 Y85.284 E0.33085
G1 X85.794 Y85.794 E0.02207
G1 X85.572 Y85.794 E0.00957
G1 X90.854 Y91.075 E0.32319
G1 X90.812 Y91.123 E0.00275
G1 X90.44 Y91.393 E0.01987
G1 X84.841 Y85.794 E0.3426
G1 X84.11 Y85.794 E0.03164
G1 X90. Y91.684 E0.36042
G1 X89.494 Y91.909 E0.02396
G1 X83.379 Y85.794 E0.37421
G1 X82.647 Y85.794 E0.03164
G1 X88.929 Y92.075 E0.38435
G1 X88.439 Y92.179 E0.02165
G1 X88.301 Y92.179 E0.00596
G1 X81.916 Y85.794 E0.39071
G1 X81.185 Y85.794 E0.03164
G1 X87.57 Y92.179 E0.39071
G1 X86.702 Y91.996 E0.0384
G1 X86.62 Y91.96 E0.00387
G1 X80.454 Y85.794 E0.37732
G1 X79.722 Y85.794 E0.03164
G1 X83.135 Y89.206 E0.20882
G1 X82.404 Y89.206 E0.03164
G1 X78.991 Y85.794 E0.20882
G1 X78.26 Y85.794 E0.03164
G1 X81.672 Y89.206 E0.20882
G1 X80.941 Y89.206 E0.03164
G1 X77.529 Y85.794 E0.20882
G1 X76.797 Y85.794 E0.03164
G1 X80.21 Y89.206 E0.20882
G1 X79.479 Y89.206 E0.03164
G1 X76.066 Y85.794 E0.20882
G1 X75.335 Y85.794 E0.03164
G1 X78.747 Y89.206 E0.20882
G1 X78.016 Y89.206 E0.03164
G1 X74.603 Y85.794 E0.20882
G1 X73.872 Y85.794 E0.03164
G1 X77.285 Y89.206 E0.20882
G1 X76.554 Y89.206 E0.03164
G1 X73.141 Y85.794 E0.20882
G1 X72.41 Y85.794 E0.03164
G1 X75.822 Y89.206 E0.20882
G1 X75.091 Y89.206 E0.03164
G1 X71.678 Y85.794 E0.20882
G1 X70.947 Y85.794 E0.03164
G1 X74.36 Y89.206 E0.20882
G1 X73.629 Y89.206 E0.03164
G1 X70.216 Y85.794 E0.20882
G1 X69.485 Y85.794 E0.03164
G1 X72.897 Y89.206 E0.20882
G1 X72.166 Y89.206 E0.03164
G1 X68.753 Y85.794 E0.20882
G1 X68.022 Y85.794 E0.03164
G1 X71.435 Y89.206 E0.20882
G1 X70.704 Y89.206 E0.03164
G1 X67.291 Y85.794 E0.20882
G1 X66.56 Y85.794 E0.03164
G1 X69.972 Y89.206 E0.20882
G1 X69.241 Y89.206 E0.03164
G1 X65.828 Y85.794 E0.20882
G1 X65.097 Y85.794 E0.03164
G1 X68.51 Y89.206 E0.20882
G1 X67.779 Y89.206 E0.03164
G1 X64.366 Y85.794 E0.20882
G1 X63.635 Y85.794 E0.03164
G1 X67.047 Y89.206 E0.20882
G1 X66.316 Y89.206 E0.03164
G1 X62.903 Y85.794 E0.20882
G1 X62.172 Y85.794 E0.03164
G1 X65.585 Y89.206 E0.20882
G1 X64.853 Y89.206 E0.03164
G1 X61.794 Y86.147 E0.18723
G1 X61.794 Y86.294 E0.00637
G1 X61.21 Y86.294 E0.02527
G1 X64.122 Y89.206 E0.17823
G1 X63.391 Y89.206 E0.03164
G1 X60.478 Y86.294 E0.17823
G1 X59.747 Y86.294 E0.03164
G1 X62.66 Y89.206 E0.17823
G1 X61.928 Y89.206 E0.03164
G1 X58.783 Y86.061 E0.19246
M204 S1500
G1 X58.167 Y85.811 F18000
M204 S1000
G1 X57.552 Y85.561
G1 F1800
G1 X61.197 Y89.206 E0.22306
G1 X60.466 Y89.206 E0.03164
G1 X57.053 Y85.794 E0.20882
G1 X56.322 Y85.794 E0.03164
G1 X59.735 Y89.206 E0.20882
G1 X59.003 Y89.206 E0.03164
G1 X55.591 Y85.794 E0.20882
